X: 150
T: Dakou shao de ershi ke ya Twenty teeth whistling
%%abc-version 2.0
%%abcx-abcm2ps-target-version 5.9.1 (29 Sep 2008)
%%abc-creator hum2abc beta
%%abcx-conversion-date 2013/10/02 07:44:27
%%abc-edited-by Helmut Schaffrath
%%humdrum-veritas 1363136269
%%humdrum-veritas-data 1294636159
%%continueall 1
%%barnumbers 0
L: 1/8
M: 2/4
K: C
G E E G [I:setbarnb 1]| 
A> c A G | 
c E E A | 
G4 | 
A E E A | 
A,> C G, A, | 
D/ C E/ D/ E/ C | 
A,4 |]  



